X: 092
M: 6/8
L: 1/8
K: Gm
|: G |\
"2f"G2d d2e | !+!c3- c2c | c2d c2B | !+!A2G ABc |
!+!B3 cBA | GFG ABc | !+!B3 cBA | G2G ABc |\
!+!B3 cBA | GFG ABc | !+!B3 cBA | G3- G2 :|

